X:371
T: Der Abschiedskuá (99), S. 249
N: T0260
O: Luxemburg
S: Singendes Volk, Esch-Alzette 1937 posth.]
N: Lullingen, mitgeteilt: hhh Heinrich Godefroid (Lehrer)
R: Liebeslieder]
M: 2/4
L: 1/16
K: G
 | B2B2B2B2 | B4B2
A2 | A2c2B2A2 | G4z2
BB | A2G2F2A2 | A2d2d2
d2 | d2d2d2d2 | d2e2d2
c2 | B2B2B2B2 | B2B2A2
B2 | d2d2c2A2 | G4z4

